Papirus/22x22/apps/multiwinia.svg

<svg width="22" height="22" version="1.1" xmlns="http://www.w3.org/2000/svg">
 <g>
  <path d="m10 1.5a3.0003 3.0003 0 0 0-2.8261719 2h-2.1738281a3.0003 3.0003 0 0 0-3 3v2a3.0003 3.0003 0 0 0 3 3h0.1738281a3.0003 3.0003 0 0 0-0.1738281 1v6a3.0003 3.0003 0 0 0 3 3h2a3.0003 3.0003 0 0 0 0.998047-0.175781 3.0003 3.0003 0 0 0 1.001953 0.175781h2a3.0003 3.0003 0 0 0 3-3v-6a3.0003 3.0003 0 0 0-0.175781-1h0.175781a3.0003 3.0003 0 0 0 3-3v-2a3.0003 3.0003 0 0 0-3-3h-2.175781a3.0003 3.0003 0 0 0-2.824219-2z" style="opacity:.2"/>
  <path d="m10 1a3.0003 3.0003 0 0 0-2.8261719 2h-2.1738281a3.0003 3.0003 0 0 0-3 3v2a3.0003 3.0003 0 0 0 3 3h0.1738281a3.0003 3.0003 0 0 0-0.1738281 1v6a3.0003 3.0003 0 0 0 3 3h2a3.0003 3.0003 0 0 0 0.998047-0.175781 3.0003 3.0003 0 0 0 1.001953 0.175781h2a3.0003 3.0003 0 0 0 3-3v-6a3.0003 3.0003 0 0 0-0.175781-1h0.175781a3.0003 3.0003 0 0 0 3-3v-2a3.0003 3.0003 0 0 0-3-3h-2.175781a3.0003 3.0003 0 0 0-2.824219-2z" style="fill:#617573"/>
  <path d="m10 4.5v2h-5v2h5v4h-2v6h2v-4h2v4h2v-6h-2v-4h5v-2h-5v-2z" style="opacity:.2"/>
  <path d="m10 4v2h-5v2h5v4h-2v6h2v-4h2v4h2v-6h-2v-4h5v-2h-5v-2z" style="fill:#e81a2b"/>
  <path d="m10 4v0.5h2v-0.5zm-5 2v0.5h5v-0.5zm7 0v0.5h5v-0.5zm-4 6v0.5h2v-0.5zm4 0v0.5h2v-0.5z" style="fill:#ffffff;opacity:.2"/>
  <path d="m10 1a3.0003 3.0003 0 0 0-2.8261719 2h-2.1738281a3.0003 3.0003 0 0 0-3 3v0.5a3.0003 3.0003 0 0 1 3-3h2.1738281a3.0003 3.0003 0 0 1 2.8261719-2h2a3.0003 3.0003 0 0 1 2.824219 2h2.175781a3.0003 3.0003 0 0 1 3 3v-0.5a3.0003 3.0003 0 0 0-3-3h-2.175781a3.0003 3.0003 0 0 0-2.824219-2zm-4.9550781 10.5a3.0003 3.0003 0 0 0-0.0449219 0.5v0.5a3.0003 3.0003 0 0 1 0.1738281-1zm11.779297 0a3.0003 3.0003 0 0 1 0.175781 1v-0.5a3.0003 3.0003 0 0 0-0.04687-0.5z" style="fill:#ffffff;opacity:.2"/>
 </g>
</svg>

<svg xmlns="http://www.w3.org/2000/svg" width="22" height="22" version="1.1">
 <path style="opacity:0.2" d="m 10,1.5 a 3.0003,3.0003 0 0 0 -2.8261719,2 H 5 a 3.0003,3.0003 0 0 0 -3,3 v 2 a 3.0003,3.0003 0 0 0 3,3 H 5.1738281 A 3.0003,3.0003 0 0 0 5,12.5 v 6 a 3.0003,3.0003 0 0 0 3,3 h 2 A 3.0003,3.0003 0 0 0 10.998047,21.324219 3.0003,3.0003 0 0 0 12,21.5 h 2 a 3.0003,3.0003 0 0 0 3,-3 v -6 a 3.0003,3.0003 0 0 0 -0.175781,-1 H 17 a 3.0003,3.0003 0 0 0 3,-3 v -2 a 3.0003,3.0003 0 0 0 -3,-3 H 14.824219 A 3.0003,3.0003 0 0 0 12,1.5 Z"/>
 <path style="fill:#556765" d="M 10,1 A 3.0003,3.0003 0 0 0 7.1738281,3 H 5 A 3.0003,3.0003 0 0 0 2,6 v 2 a 3.0003,3.0003 0 0 0 3,3 H 5.1738281 A 3.0003,3.0003 0 0 0 5,12 v 6 a 3.0003,3.0003 0 0 0 3,3 h 2 A 3.0003,3.0003 0 0 0 10.998047,20.824219 3.0003,3.0003 0 0 0 12,21 h 2 a 3.0003,3.0003 0 0 0 3,-3 V 12 A 3.0003,3.0003 0 0 0 16.824219,11 H 17 A 3.0003,3.0003 0 0 0 20,8 V 6 A 3.0003,3.0003 0 0 0 17,3 H 14.824219 A 3.0003,3.0003 0 0 0 12,1 Z"/>
 <path style="opacity:0.2" d="m 10,4.5 v 2 H 5 v 2 h 5 v 4 H 8 v 6 h 2 v -4 h 2 v 4 h 2 v -6 h -2 v -4 h 5 v -2 h -5 v -2 z"/>
 <path style="fill:#eb3a49" d="M 10,4 V 6 H 5 v 2 h 5 v 4 H 8 v 6 h 2 v -4 h 2 v 4 h 2 V 12 H 12 V 8 h 5 V 6 H 12 V 4 Z"/>
 <path style="opacity:0.2;fill:#ffffff" d="m 10,4 v 0.5 h 2 V 4 Z M 5,6 v 0.5 h 5 V 6 Z m 7,0 v 0.5 h 5 V 6 Z m -4,6 v 0.5 h 2 V 12 Z m 4,0 v 0.5 h 2 V 12 Z"/>
 <path style="opacity:0.1;fill:#ffffff" d="M 10,1 A 3.0003,3.0003 0 0 0 7.1738281,3 H 5 A 3.0003,3.0003 0 0 0 2,6 v 0.5 a 3.0003,3.0003 0 0 1 3,-3 H 7.1738281 A 3.0003,3.0003 0 0 1 10,1.5 h 2 a 3.0003,3.0003 0 0 1 2.824219,2 H 17 a 3.0003,3.0003 0 0 1 3,3 V 6 A 3.0003,3.0003 0 0 0 17,3 H 14.824219 A 3.0003,3.0003 0 0 0 12,1 Z M 5.0449219,11.5 A 3.0003,3.0003 0 0 0 5,12 v 0.5 a 3.0003,3.0003 0 0 1 0.1738281,-1 z m 11.7792971,0 A 3.0003,3.0003 0 0 1 17,12.5 V 12 a 3.0003,3.0003 0 0 0 -0.04687,-0.5 z"/>
</svg>
